X: 01038
T: DONNA'S DREAM
C: Bob McQuillen Sept'74
B: Bob's Note Book 1 #38
%R: reel, hornpipe
Z: 2019 John Chambers <jc:trillian.mit.edu>
M: C
L: 1/8
K: G
dc \
| BcdB cdec | defd g2fg | egdg egdg | edcB A2dc |
| BcdB cdec | defd g2ga | agag egdc | B2G2 G2 :|
|: "2nd time 8va"GA \
| BGFG DGFG | BGBG BdcB | cA^GA EAGA | cAcA cedc |
| BGFG DGFG | BGBG BdcB | cBAB cedc | B2G2 G2 :|
%%begintext align
%% For Donna Hinds, in the hope that it will all come true!*
%%endtext
%%sep 2 2 300
%%begintext align
%% * P.S. - It sure is! (Nov'81) xxoo
%%endtext

%%sep 1 1 500

%%sep 1 1 500

